X: 10
T:North of the Grampians
M:4/4
L:1/8
Q:120
C:Capt. S. Fraser
S:James G-H learnt this tune from J Hunter
R:Strathspey
K:C
|:"C"E>F G>A G<E E<c|E/F/G G<c c<e "G"d2|"C"E>F G>A G<E E>G|"G7"F>D B,<G
, B,/C/D F2:|!
"C"e>c e/f/g e<c c>f|e<c e>f e/f/g "F"f/g/a|e>c e/f/g e<c c>e|"G7"f>d B<
G B/c/d f2|!
"C"e>c e/f/g e<c c>f|e<c e>f e/f/g "F"f/g/a|"C"(3gfe "G"(3dcB "C"(3cBA (
3GFE|"G7"F>DB,<G, B,/C/D F2||
% <A name="D1X011">
